!!!COM: Charles Ives
!!!OTL: [T270_Ive-w45p21s1-2]
**kern	**dynam	**kern	**dynam	**kern	**text	**dynam
*grp:A	*grp:A	*grp:A	*grp:A	*grp:B	*grp:B	*grp:B
*part2	*part2	*part2	*part2	*part1	*part1	*part1
*staff3	*staff3	*staff2	*staff2	*staff1	*staff1	*staff1
*I"Piano	*	*I"Piano	*	*I"Soprano Solo	*	*
*I'Pno.	*	*I'Pno.	*	*I'Soprano	*	*
*clefF4	*	*clefG2	*	*clefG2	*	*
*k[]	*	*k[]	*	*k[]	*	*
*C:	*	*C:	*	*C:	*	*
*M4/4	*	*M4/4	*	*M4/4	*	*
=1	=1	=1	=1	=1	=1	=1
*^	*	*^	*	*	*	*
!	!	!LO:DY:a	!LO:TX:b:i:t=slowly and quietly	!	!LO:DY:a	!LO:TX:t=[[quarter]=51]	!	!
!	!	!	!LO:TX:a:t=🟒	!	!	!	!	!
!LO:TX:b:t=🟒NOTE - the small notes in the right hand may be omitted, but if played should be scarcely audible.This song was originally written as a movement 	!	!	!	!	!	!	!	!
!LO:TX:b:t=in a set of pieces for orchestra, in which it was intended that the upper strings, muted, be listened to separately or sub-consciously - as a kind of	!	!	!	!	!	!	!	!
!LO:TX:b:t=distant background of mists seen through the trees or over a river Valley, their parts bearing little or no relation to the tonality, etc. of the tune.	!	!	!	!	!	!	!	!
!LO:TX:b:t= It is difficult to reproduce this effect with piano.	!	!	!	!	!	!	!	!
(2F	1CCC#X 1GGG#X 1CC#X 1GG#X	mp	(8aL	4a	pppp	1r	.	.
.	.	.	8gg 8bb	.	.	.	.	.
*	*	*	*v	*v	*	*	*	*
.	.	.	8ff 8aa)	.	.	.	.
*	*	*	*^	*	*	*	*
.	.	.	(8gJ	4g	.	.	.	.
2D#X)	.	.	8ffL 8aa	.	.	.	.	.
*	*	*	*v	*v	*	*	*	*
.	.	.	8cc 8gg)	.	.	.	.
*	*	*	*^	*	*	*	*
.	.	.	(8f	4f	.	.	.	.
.	.	.	8ffJ 8aa	.	.	.	.	.
*	*	*	*v	*v	*	*	*	*
=2	=2	=2	=2	=2	=2	=2	=2
(2F	1CC#X 1GG#X	.	8dddL)	.	1r	.	.
*	*	*	*^	*	*	*	*
.	.	.	(8g	4g	.	.	.	.
.	.	.	8ff 8aa	.	.	.	.	.
*	*	*	*v	*v	*	*	*	*
.	.	.	8eeJ 8gg)	.	.	.	.
*	*	*	*^	*	*	*	*
2D#X)	.	.	(8aL	4a	.	.	.	.
.	.	.	8gg 8bb	.	.	.	.	.
*	*	*	*v	*v	*	*	*	*
.	.	.	8ff 8aa)	.	.	.	.
.	.	.	8bJ	.	.	.	.
*v	*v	*	*	*	*	*	*
=3	=3	=3	=3	=3	=3	=3
*	*	*^	*	*	*	*
*^	*	*	*	*	*	*	*
!	!	!	!	!LO:TX:b:t=P:problem: 5 should not be displaying below the top staff.	!	!	!	!
!	!	!	!	!LO:TUP:xbr	!	!	!	!
(2G#X:	1CCC#X: 1GGG#X: 1CC#X: 1GG#X:	.	(10fff#XL:	5c#X: 5cc#X: 5gg#X: 5ddd:	.	1r	.	.
.	.	.	.	.	.	.	.	.
.	.	.	10ccc#X 10eee	.	.	.	.	.
.	.	.	10a	5a	.	.	.	.
.	.	.	10ccc# 10eee	.	.	.	.	.
*	*	*	*v	*v	*	*	*	*
.	.	.	10bb-XJ 10ddd)	.	.	.	.
*	*	*	*^	*	*	*	*
!	!	!	!	!LO:TX:t=P:problem: G4 notes should be aligned.	!	!	!	!
2A#X)	.	.	(>8gL	4g	.	.	.	.
.	.	.	8ee-X 8ggn	.	.	.	.	.
.	.	.	8ff 8aa)	4ryy	.	.	.	.
.	.	.	(8fJ	.	.	.	.	.
*	*	*	*v	*v	*	*	*	*
=4	=4	=4	=4	=4	=4	=4	=4
*	*	*	*^	*	*	*	*
(4G#X	1CC#X 1GG#X	.	8gL	4g	1r	1r	.	.
.	.	.	.	.	.	.	.	.
.	.	.	8cc-X 8ee	.	.	.	.	.
*	*	*	*v	*v	*	*	*	*
4E#X	.	.	8ff 8aa)	.	.	.	.
.	.	.	(>8g#XJ	.	.	.	.
*	*	*	*^	*	*	*	*
2D#X)	.	.	8aL	4a	.	.	.	.
.	.	.	8ee-X 8gg	.	.	.	.	.
*	*	*	*v	*v	*	*	*	*
.	.	.	8cc#X 8ff#X)	.	.	.	.
.	.	.	(>8gnJ	.	.	.	.
!!linebreak:original
=5	=5	=5	=5	=5	=5	=5	=5
(2D#X	1CC#X 1GG#X	.	8ee-XL 8gg	.	1r	.	.
.	.	.	.	.	.	.	.
.	.	.	8ff 8aa)	.	.	.	.
*	*	*	*^	*	*	*	*
.	.	.	(8g#X	4g#	.	.	.	.
.	.	.	8aJ	.	.	.	.	.
*	*	*	*v	*v	*	*	*	*
[2E#X	.	.	8ee-XL 8gg	.	.	.	.
.	.	.	8ff 8aa#X)	.	.	.	.
*	*	*	*^	*	*	*	*
.	.	.	(8gn	4g	.	.	.	.
.	.	.	8ffJ 8aan	.	.	.	.	.
=6	=6	=6	=6	=6	=6	=6	=6	=6
2E#]	1CC#X 1GG#X	.	8ccL 8gg)	8ryy	.	4r	.	.
*	*	*	*v	*v	*	*	*	*
.	.	.	.	.	.	.	.
*	*	*	*^	*	*	*	*
.	.	.	(8f	4f	.	.	.	.
.	.	.	8ff 8aa	.	.	4r	.	.
.	.	.	.	.	.	.	.	.
*	*	*	*v	*v	*	*	*	*
.	.	.	8dddJ)	.	.	.	.
*	*	*	*^	*	*	*	*
!	!	!	!	!LO:TX:t=P:problem: G4 notes should be aligned.	!	!	!	!
2E#X)	.	.	(8gL	4g	.	4r	.	.
.	.	.	8ff 8aa	.	.	.	.	.
*	*	*	*v	*v	*	*	*	*
.	.	.	8ee 8gg)	.	8r	8r	.
.	.	.	.	.	.	.	.
.	.	.	(>8aJ	.	8f	Con-	mp
.	.	.	.	.	.	.	.
=7	=7	=7	=7	=7	=7	=7	=7
(2E#X	2CC#X 2GG#X	.	8ggL 8bb	.	8f	-ten-	.
.	.	.	.	.	.	.	.
.	.	.	8ff 8aa)	.	8f	-ted	.
.	.	.	.	.	.	.	.
*	*	*	*^	*	*	*	*
.	.	.	(8b	4b	.	4f	ri-	.
.	.	.	8aJ	.	.	.	.	.
.	.	.	.	.	.	.	.	.
*	*	*	*v	*v	*	*	*	*
2A#X)	2EE#X 2C#X	.	/8aa-XL 8ccc	.	[2d-X	-ver!	.
.	.	.	.	.	.	.	.
.	.	.	8gg 8bb)	.	.	.	.
.	.	.	(>8cc#X	.	.	.	.
.	.	.	8bJ	.	.	.	.
=8	=8	=8	=8	=8	=8	=8	=8
(2E#X	1CC#X 1GG#X	.	8ggL 8bb	.	4d-]	.	.
.	.	.	.	.	.	.	.
.	.	.	8ff 8aa)	.	.	.	.
*	*	*	*^	*	*	*	*
.	.	.	(8b	4b	.	4r	.	.
.	.	.	.	.	.	.	.	.
.	.	.	8aa-XJ 8ccc	.	.	.	.	.
2D#X)	.	.	8ggL 8bb)	8ryy	.	4r	.	.
*	*	*	*v	*v	*	*	*	*
.	.	.	.	.	.	.	.
.	.	.	.	.	.	.	.
.	.	.	(>8a	.	.	in	.
*	*	*	*^	*	*	*	*
.	.	.	8b	4b	8e-X	8e-	in	.
.	.	.	.	.	.	.	.	.
.	.	.	8ggJ 8bb	.	.	8e-	thy	.
*v	*v	*	*	*	*	*	*	*
*	*	*v	*v	*	*	*	*
=	=	=	=	=	=	=
*-	*-	*-	*-	*-	*-	*-
!!!system-decoration: s1[({(s2,s3)})]
!!!RDF**kern: > = above
!!!RDF**kern: < = below
!!!EED: Daniel Wright
!!!EEV: 2022/04/21
